X:1
T: Andy's Reel
T: The Earl of Seafield's Reel
C:Donald Grant
R:Reel
Q: 232
K:D
M:4/4
L:1/8
|:A1/2c1/2|d2 AG FD DF|EB, ED CE A,G|FD FA BG Bd|cA ec df ec|
d2 Ad FD DF|EB, ED CE A,G|FD FA BG Bd|cA ec d1/2d1/2d d:|
|:g|f2 df ge eg|fd ed cA Ag|f2 df ae eg|fd ef d1/2d1/2d dg|
f2 df ge eg|fd ed cA Ag|fd df be eg|fb ec d1/2d1/2d d:|
